X: 21194
T: Katie Scollard's
R: slide
M: 12/8
K: Dmajor
A2 D FED A2 F G2 B|A2 D FED E2 F G2 B|A2 D FED A2 F G2 B|ABA GFE D6:|
d2 c A2 B =cBA G3|d2 c ABc d3 e3|d2 c A2 B =cBA G3|ABA GFE D6:|

